X:1
T:Ad Perennis Vitae Fontem, 87.87.87
T:Ad Perennis Vitae Fontem, 87.87.87
T:Attributed to the Tours Breviary
T:Public Domain Courtesy of the Cyber Hymnal™
C:Attributed to the Tours Breviary
Z:Public Domain
Z:Courtesy of the Cyber Hymnal™
%%score ( 1 2 ) ( 3 4 )
L:1/8
Q:1/4=112
M:none
K:F
V:1 treble 
V:2 treble 
V:3 bass 
V:4 bass 
V:1
 D2 D2 F2 G2 A2 D2 | [DG]4 [CE]4 | F2 F2 G2 A2 B2 B2 | [CA]8 | A2 B2 c2 c2 [Fd]2 [Gc]2 | A4 A4 | %6
 A2 =B2 c2 [DF]2 [DF]2 [EG]2 | [FA]8 | G2 A2 A2 D2 G2 F2 | E4 E4 | D2 F2 [DG]2 [CE]2 A2 B2 | %11
 [^CA]8 |] %12
V:2
 x12 | x8 | C8 D4 | x8 | F8 x4 | F8 | E6 x6 | x8 | D8 D4 | C8 | A,4 x2 D4 x2 | x8 |] %12
V:3
 [D,F,A,]12 | [G,,B,]4 [C,G,]4 | [F,A,]8 [B,,F,]4 | F,8 | [F,A,]8 [D,A,]2 [E,C]2 | [F,C]8 | %6
 [A,,C]6 [D,A,]2 [D,A,]2 [C,C]2 | [F,C]8 | [G,B,]4 [F,A,]4 [G,,B,]4 | [C,G,]8 | %10
 [D,F,]4 [G,,B,]2 [C,G,]2 [F,,A,]2 [G,,G,]2 | [A,,E,]8 |] %12
V:4
 x12 | x8 | x12 | F,8 | x12 | x8 | x12 | x8 | x12 | x8 | x12 | x8 |] %12

